Papirus/32x32/apps/livewallpaper-config.svg

<svg xmlns="http://www.w3.org/2000/svg" width="32" height="32" version="1">
 <rect fill="#8e8e8e" width="21" height="16" x="-28" y="-24" rx="1.313" ry="1.333" transform="matrix(0,-1,-1,0,0,0)"/>
 <rect fill="#8e8e8e" width="20" height="26" x="-25" y="-29" rx="1.25" ry="1.3" transform="matrix(0,-1,-1,0,0,0)"/>
 <path fill="#fff" style="opacity:0.2" d="m4.3008 5c-0.7202 0-1.3008 0.5575-1.3008 1.25v1c0-0.6925 0.5806-1.25 1.3008-1.25h23.398c0.72 0 1.301 0.5575 1.301 1.25v-1c0-0.6925-0.581-1.25-1.301-1.25h-23.398z"/>
 <path opacity=".2" d="m8 26.688v1c0 0.727 0.5953 1.312 1.334 1.312h13.332c0.739 0 1.334-0.585 1.334-1.312v-1c0 0.727-0.595 1.312-1.334 1.312h-13.332c-0.7387 0-1.334-0.585-1.334-1.312z"/>
 <path opacity=".2" d="m3 23.75v1c0 0.692 0.5806 1.25 1.3008 1.25h23.398c0.72 0 1.301-0.558 1.301-1.25v-1c0 0.692-0.581 1.25-1.301 1.25h-23.398c-0.7204 0-1.301-0.558-1.301-1.25z"/>
 <rect style="fill:#1d83af" width="16" height="22" x="-23" y="-27" rx="0" ry="0" transform="matrix(0,-1,-1,0,0,0)"/>
 <path style="opacity:0.2" d="M 21.5,9 A 3.5,3.5 0 0 0 18,12.5 3.5,3.5 0 0 0 21.5,16 3.5,3.5 0 0 0 25,12.5 3.5,3.5 0 0 0 21.5,9 Z m -7,2 A 1.5,1.5 0 0 0 13,12.5 1.5,1.5 0 0 0 14.5,14 1.5,1.5 0 0 0 16,12.5 1.5,1.5 0 0 0 14.5,11 Z m -5,3 A 2.5,2.5 0 0 0 7,16.5 2.5,2.5 0 0 0 9.5,19 2.5,2.5 0 0 0 12,16.5 2.5,2.5 0 0 0 9.5,14 Z m 13.970703,4.470703 a 1,1 0 0 0 -1,1 1,1 0 0 0 1,1 1,1 0 0 0 1,-1 1,1 0 0 0 -1,-1 z M 18,19 a 2,2 0 0 0 -2,2 2,2 0 0 0 2,2 2,2 0 0 0 2,-2 2,2 0 0 0 -2,-2 z"/>
 <circle style="fill:#f0f9fd" cx="21.5" cy="11.5" r="3.5"/>
 <circle style="fill:#c4e7f5" cx="9.5" cy="15.5" r="2.5"/>
 <circle style="fill:#a6daf0" cx="18" cy="20" r="2"/>
 <circle style="fill:#c4e7f5" cx="14.5" cy="11.5" r="1.5"/>
 <circle style="fill:#d3edf8" cx="23.471" cy="18.471" r="1"/>
 <circle style="fill:#c149c0;fill-rule:evenodd" cx="24" cy="23" r="8"/>
 <path style="fill:#ffffff" d="m 23,19 -0.0882,1.0536 a 3.1429,3.1429 0 0 0 -0.91852,0.53126 l -0.95759,-0.4509 -1,1.7321 0.86941,0.6038 a 3.1429,3.1429 0 0 0 -0.048,0.53013 3.1429,3.1429 0 0 0 0.0457,0.53237 l -0.86719,0.60156 1,1.7321 0.95536,-0.44978 a 3.1429,3.1429 0 0 0 0.92075,0.5279 l 0.0882,1.0558 2,0 0.0882,-1.0536 a 3.1429,3.1429 0 0 0 0.91854,-0.53126 l 0.95758,0.4509 1,-1.7321 -0.86942,-0.6038 a 3.1429,3.1429 0 0 0 0.048,-0.53013 3.1429,3.1429 0 0 0 -0.0457,-0.53237 l 0.86719,-0.60156 -1,-1.7321 -0.95536,0.44978 a 3.1429,3.1429 0 0 0 -0.921,-0.528 l -0.088,-1.056 -2,0 z m 1,2.8572 a 1.1429,1.1429 0 0 1 1.143,1.143 A 1.1429,1.1429 0 0 1 24,24.1432 1.1429,1.1429 0 0 1 22.857,23.0002 1.1429,1.1429 0 0 1 24,21.8572 Z"/>
 <path style="opacity:0.2" d="M 31.979,23.424 A 8,8 0 0 1 24,31 8,8 0 0 1 16.021,23.576 8,8 0 0 0 16,24 a 8,8 0 0 0 8,8 8,8 0 0 0 8,-8 8,8 0 0 0 -0.02148,-0.57617 z"/>
</svg>

<svg xmlns="http://www.w3.org/2000/svg" width="32" height="32" version="1">
 <rect style="opacity:0.2" width="21" height="16" x="-29" y="-24" rx="1.25" ry="1.25" transform="matrix(0,-1,-1,0,0,0)"/>
 <rect style="fill:#8e8e8e" width="21" height="16" x="-28" y="-24" rx="1.25" ry="1.25" transform="matrix(0,-1,-1,0,0,0)"/>
 <rect style="opacity:0.2" width="20" height="26" x="-26" y="-29" rx="1.25" ry="1.25" transform="matrix(0,-1,-1,0,0,0)"/>
 <rect style="fill:#4f4f4f" width="20" height="26" x="-25" y="-29" rx="1.25" ry="1.25" transform="matrix(0,-1,-1,0,0,0)"/>
 <path style="opacity:0.1;fill:#ffffff" d="M 4.25,5 C 3.5575,5 3,5.5575 3,6.25 V 7.25 C 3,6.5575 3.5575,6 4.25,6 H 27.75 C 28.442,6 29,6.5575 29,7.25 V 6.25 C 29,5.5575 28.442,5 27.75,5 Z"/>
 <rect style="opacity:0.1;fill:#ffffff" width="22" height="1" x="5" y="23"/>
 <rect style="fill:#1d83af" width="16" height="22" x="-23" y="-27" rx="0" ry="0" transform="matrix(0,-1,-1,0,0,0)"/>
 <path style="opacity:0.2" d="M 21.5,9 A 3.5,3.5 0 0 0 18,12.5 3.5,3.5 0 0 0 21.5,16 3.5,3.5 0 0 0 25,12.5 3.5,3.5 0 0 0 21.5,9 Z m -7,2 A 1.5,1.5 0 0 0 13,12.5 1.5,1.5 0 0 0 14.5,14 1.5,1.5 0 0 0 16,12.5 1.5,1.5 0 0 0 14.5,11 Z m -5,3 A 2.5,2.5 0 0 0 7,16.5 2.5,2.5 0 0 0 9.5,19 2.5,2.5 0 0 0 12,16.5 2.5,2.5 0 0 0 9.5,14 Z m 13.970703,4.470703 a 1,1 0 0 0 -1,1 1,1 0 0 0 1,1 1,1 0 0 0 1,-1 1,1 0 0 0 -1,-1 z M 18,19 a 2,2 0 0 0 -2,2 2,2 0 0 0 2,2 2,2 0 0 0 2,-2 2,2 0 0 0 -2,-2 z"/>
 <circle style="fill:#f0f9fd" cx="21.5" cy="11.5" r="3.5"/>
 <circle style="fill:#c4e7f5" cx="9.5" cy="15.5" r="2.5"/>
 <circle style="fill:#a6daf0" cx="18" cy="20" r="2"/>
 <circle style="fill:#c4e7f5" cx="14.5" cy="11.5" r="1.5"/>
 <circle style="fill:#d3edf8" cx="23.471" cy="18.471" r="1"/>
 <circle style="opacity:0.2" cx="24" cy="24" r="8"/>
 <circle style="fill:#c149c0" cx="24" cy="23" r="8"/>
 <path style="fill:#ffffff" d="M 23,19 22.912,20.054 A 3.1429,3.1429 0 0 0 21.993,20.585 L 21.036,20.134 20.036,21.866 20.905,22.47 A 3.1429,3.1429 0 0 0 20.857,23 3.1429,3.1429 0 0 0 20.903,23.532 L 20.036,24.134 21.036,25.866 21.991,25.416 A 3.1429,3.1429 0 0 0 22.912,25.944 L 23,27 H 25 L 25.088,25.946 A 3.1429,3.1429 0 0 0 26.007,25.415 L 26.964,25.866 27.964,24.134 27.095,23.53 A 3.1429,3.1429 0 0 0 27.143,23 3.1429,3.1429 0 0 0 27.097,22.468 L 27.964,21.866 26.964,20.134 26.009,20.584 A 3.1429,3.1429 0 0 0 25.088,20.056 L 25,19 Z M 24,21.857 A 1.1429,1.1429 0 0 1 25.143,23 1.1429,1.1429 0 0 1 24,24.143 1.1429,1.1429 0 0 1 22.857,23 1.1429,1.1429 0 0 1 24,21.857 Z"/>
</svg>
